src/topics/icons/aws-glacier.svg

<svg height="309" preserveAspectRatio="xMidYMid" viewBox="0 0 256 309" width="256" xmlns="http://www.w3.org/2000/svg"><path d="m128.004 229.29 107.363 26.04.089-.174.017-201.297-.097-.173-107.372 25.996z" fill="#8c3123"/><path d="m235.367 53.686 20.633 10.314v181.024l-20.633 10.306z" fill="#e05243"/><path d="m128.004 229.29-107.371 25.984-.024-.055-.006-201.488.03-.045 107.371 25.996z" fill="#e05243"/><path d="m20.633 53.686-20.633 10.314v181.024l20.633 10.25z" fill="#8c3123"/><path d="m128.004 309.015.445-.56-.363-308.381-.082-.074-46.831 23.413v262.193z" fill="#8c3123"/><path d="m128.004 309.015v-309.015l46.823 23.413v262.193z" fill="#e05243"/></svg>

<?xml version="1.0" encoding="UTF-8" standalone="no"?>
<svg width="256px" height="309px" viewBox="0 0 256 309" version="1.1" xmlns="http://www.w3.org/2000/svg" xmlns:xlink="http://www.w3.org/1999/xlink" preserveAspectRatio="xMidYMid">
	<g>
		<path d="M128.004,229.29 L235.367,255.33 L235.456,255.156 L235.473,53.859 L235.376,53.686 L128.004,79.682 L128.004,229.29" fill="#8C3123"></path>
		<path d="M235.367,53.686 L256,64 L256,245.024 L235.367,255.33 L235.367,53.686" fill="#E05243"></path>
		<path d="M128.004,229.29 L20.633,255.274 L20.609,255.219 L20.603,53.731 L20.633,53.686 L128.004,79.682 L128.004,229.29" fill="#E05243"></path>
		<path d="M20.633,53.686 L0,64 L0,245.024 L20.633,255.274 L20.633,53.686" fill="#8C3123"></path>
		<path d="M128.004,309.015 L128.449,308.455 L128.086,0.074 L128.004,0 L81.173,23.413 L81.173,285.606 L128.004,309.015" fill="#8C3123"></path>
		<path d="M128.004,309.015 L128.004,0 L174.827,23.413 L174.827,285.606 L128.004,309.015" fill="#E05243"></path>
	</g>
</svg>
